X:2
T:Bride Beneath the Apple Tree
C:Corwin Zekley
L:1/8
M:3/4
K:G
"G" D2 G3 d |"Bm" F3 G FD |"C" E2 c2 ed |"G" B6 |$"G" D2 G3 d |"D" F2 Ad gf |"C" e3 g ed | %7
"G" B4 cd |$"C" e3 d GA |"G" B3 A DE |"Bm" FG dF GB |"C" E2- E3 C |$"G" D2 G3 d |"D" F3 G FD | %14
"C" EF G2 A2 |"G" G3 A Bd |$"D" f3 g fd | Ad a2 gf |"C" e3 g ed | c2 EF GA |$"G" B4 FG | FG dF Gd | %22
"C" e4 d2 | c2- c3 E |$"G" D2 G3 d |"D" F3 G FD |"C" E2 c2 ed |"Bm" f4 ef |$"Am7" g3 e fg | %29
"^D7(add13)" b4 a2 |"C" g6- |"G""^skip last time" g4"_(" B,"_)"C |] %32

